X:1
T:2. FANTASIA SUPER: Io son ferito lasso.
T:2. FANTASIA SUPER: Io son ferito lasso.
T:Fuga quadruplici.
T:Samuel Scheidt (1587 - 1654)
T:from Tabulatura nova. 1624 Erster Theil SSWV 103
C:Samuel Scheidt (1587 - 1654)
Z:from Tabulatura nova. 1624 Erster Theil SSWV 103
%%score { ( 1 2 ) | ( 3 4 ) }
L:1/8
Q:1/2=60
M:4/2
K:C
V:1 treble nm="Orgel" snm="Org."
V:2 treble 
V:3 bass 
V:4 bass 
V:1
 e8 e4 e4 | d4 c4 f8 | e8 z4 A4- | A4 G4 c8 | B8 A8 | z4 e8 d4 | g2 f2 e2 d2 c6 de | %7
 f4 e2 d2 c2 B2 c2 d2 | e2 B2 d6 c2 d2 e2 | f4 e4 z8 | z4 e4 f4 c4 | d4 e4 A4 z2 e2 | %12
 c2 d2 e2 c2 A2 d2 B4 | A8 z8 | z4 e4 f4 c4 | d4 e4 A8 | z16 | z16 | z4 d4 ^c4 =c4 | B4 _B4 A4 e4 | %20
 d6 e2 f4 e4 | z16 | z8 z4 e4 | f4 ^f4 g4 ^g4 | a8 z8 | z16 | e8 e4 e4 | d4 c4 f8 | %28
 e4 z4 z2 e2 f2 c2 | d2 e2 A4 z4 d4 | f2 c3 d e2 A8 | z16 | z16 | z16 | z16 | %35
 z2 e2 d2 c2 B2 A2 B2 cd | e2 dc B2 c2 d2 AB c2 G2 | A2 B2 c2 d2 e8 | z4 z2 e2 dcBA ^G4 | %39
 A4 z4 z8 | z4 e4 f4 c4 | d4 e4 A4 z4 | z4 e4 e4 e4 | d4 c4 f4 e2 e2 | f2 ^f2 g2 ^g2 a4 z4 | %45
 e8 e8 | e8 d8 | c8 f8 | e8 e8 | f8 c8 | d8 e8 | A8 a8 | ^g8 =g8 | ^f8 =f8 | e8 e8 | f8 ^f8 | %56
 g8 ^g8 | a8 z2 aa a2 g2 | f8 z8 | z8 z2 cc c2 B2 | A2 d2 d4 z2 ee e2 d2 | ^c2 d4 c2 d8 | %62
 d2 =c2 d2 e2 f2 a2 d4 | z2 g>f e>fd>e c4 f4 | z8 z2 a>b g>af>g | e8 z2 g>a f>ge>f | %66
 d8 z2 f>g e>fd>e | c6 f2 e2 a>g f>ge>f | d2 d2 g4 d8 | e8 e8 | f2 f2 g4 a8 | %71
 a2 ed cB c2 B2 e2 d2 c2 | B2 c2 B4 ^c2 d4 c2 | d2 B2 A2 B2 c2 G2 c2 B2 | A4 z4 z2 A2 c2 d2 | %75
 e2 B2 c2 =G2 A2 c2 d2 A2- | A2 B2 c2 de f2 d2 z4 | z2 B2 c2 G2 AB c2 FGAB | c8 B2 e2 B2 c2 | %79
 d2 B2 d2 cB A2 d2 A2 B2 | c2 A2 c2 BA G2 c2 G2 A2 | B2 GA B2 c2 A2 AB cABc | d8 z2 Bc dBcd | %83
 e8 e8 | ^f8 g8 | z8 z2 de fdgf | e4 z2 AB ^c2 d2 e2 f2 | ^c2 d4 c2 d2 =c2 d2 e2 | %88
 f2 e2 d2 c2 d2 e2 f2 g2 | a16 | f16 | z16 | z4 d3 e ^f2 g4 f2 | a2 gf e4 z2 e2 g4- | %94
 g2 fe d4 z2 d2 f4- | f2 ed c2 d2 e2 d4 ^c2 | d2 ef g2 fe d8 | e2 fg a2 gf e8 | d8 z8 | %99
 z4 z2 e2 e2 e2 d4 | c4 f4 e8 | z16 | z2 e2 f6 c2 d4 | e4 A8 z4 | z16 | z8 z4 z2 e2 | %106
 ^d2 =d2 ^c2 =c2 B4 z2 A2 | _B2 =B2 c2 ^c2 d2 =c2 B4 | z8 z4 z2 A2 | d2 B2 e4 A4 z4 | z16 | %111
 z4 z2 A2 B2 e4 d2- | d2 c2 B2 e2 f2 c2 d2 e2 | A4 z4 z8 | z2 d2 ^c2 =c2 =B2 _B2 A4 | z8 z2 d4 c2 | %116
 B4 A4 z4 e4 | e4 e4 d4 c4 | f8 e4 e4 | f4 c4 d4 e4 | A4 z4 z4 z2 ag | f2 ed ^c2 ed =c2 BA ^G4 | %122
 A2 c2 B4 A4 z4 | z16 | z16 | z16 | A2 B2 c2 d2 e2 dc B2 c2 | d2 cB A2 B2 c2 BA G2 A2 | %128
 B2 c2 d2 cB A4 a2 gf | e2 f2 g2 fe d2 e2 f2 ed | c2 d2 e2 dc B4 B2 c2 | d2 cB A2 B2 c2 B2 c2 d2 | %132
 e4 a4 ^g4 =g4 | ^f4 =f4 e8 | z16 | z16 | z4 z2 G2 A2 Bc d2 c2 | B2 cd e2 d2 c4 z4 | z8 z4 z2 c2 | %139
 d2 ef g2 f2 e2 fg a2 g2 | f4 z4 z8 | z4 A4 _B4 =B4 | c4 ^c4 d4 d2 ef | g2 f2 e2 fg a2 g2 f2 e2 | %144
 d4 e2 d2 ^ceee d2 =c2 | f4 e4 z8 | z2 e2 fcde A3 ^G A2 z e | fcde d3 ^c d2 e2 d2 =B2 | %148
 A2 z2 z ef^f g^gae =f4 | e4 z2 B2 A4 z d^c=c | B_B A2 A4 A4 z4 | %151
"^Concursus et Coagmentatio\nomnium quatuor fugarum.\n" z4 e4 e4 e4 | d4 c4 f8 | e4 z2 e2 f4 c4 | %154
 d4 e4 A4 z4 | z4 z2 e2 f2 ^f2 g2 ^g2 | a2 =f2 e4 d2 d2 d2 =c2 | B2 _B2 A4 z2 e2 ^d2 =d2 | %158
 ^c2 =c2 B4 A4 z4 | z8 z4 A4- | A4 A4 d8 | ^c4 d8 c4 | d4 d2 e2 f4 e4 | %163
 d12[Q:1/2=55] ^c2[Q:1/2=45] B2 | ^c16 |] %165
V:2
 z16 | z16 | z16 | z8 z4 A4 | ^G4 =G4 ^F4 =F4 | E4 G4 A8 | B8 A8 | z4 A4 A4 A4 | G4 F4 _B8 | %9
 A6 G2 F2 G2 A4 | _B4 A8 G4 | A2 B2 c2 A2 F2 A4 ^G2 | A4 z4 z8 | z4 E4 F4 ^F4 | G4 ^G4 A8 | %15
 z8 z4 A4 | ^G4 =G4 ^F4 =F4 | E4 A4 _B4 A4- | A4 G4 A8 | G8 E4 A4- | A2 GF G4 A4 z2 A2 | %21
 _B4 F4 G4 A4 | D12 ^C4 | D12 E4- | E4 E4 F4 ^F4 | G4 ^G4 A2 Bc d2 c2 | B2 cd e2 d2 c2 BA G2 A2 | %27
 _B2 FG A6 G2 A2 =B2 | c8 c6 A2 | B4 z2 A2 _B2 F3 F G2 | C8 z2 E2 F2 C2- | %31
 CD E2 D2 A3 G E2 ^F2 G2- | G2 =FE F4 E4 A4 | A4 A4 G4 F4 | _B8 A2 G2 A2 =B2 | %35
 c4 B2 A2 G2 ^F2 G2 AB | c2 BA G2 A2 B2 ^FG A2 E2 | F2 G2 A2 B2 c4 B4 | A4 G4 F4 E2 B2 | %39
 c4 G4 A4 B4 | E4 z4 z2 A2 E2 F2- | F2 G4 E2 F2 ^F2 G2 ^G2 | A4 z4 z2 A2 ^G2 =G2 | %43
 ^F2 =F2 E4 z4 A4- | A2 d2 B2 e2 A4 B4 | A2 c2 ^G2 A2 E2 c2 B2 A2 | ^G2 A2 B2 A=G ^F2 G2 A2 G2 | %47
 E2 A2 F2 A2 A4 z AAB | cAcd e2 A2 z GGA BGBc | d4 A4 z4 z AAG | FAFE D4 z GGF EGED | %51
 C4 z CCD E4 z cBA | B8 B4 z BAG | A8 A4 z AGF | G4 z EEF G2 E4 E2 | A8 z2 dd d2 c2 | B8 B8 | %57
 z2 AA A2 G2 F6 G2 | A8 A8 | A8 G8 | F8 _B8 | A8 A8 | _B8 F8 | G8 A8 | D8 d8 | ^c8 =c8 | B8 _B8 | %67
 A8 A8 | _B8 =B8 | c8 ^c8 | d8 e4 d4 | c4 A4 ^G2 c2 B2 A2 | ^G2 A4 G2 A2 _B2 A3 =G | %73
 ^F2 G2 A2 G2 E4 A2 G2 | F2 A4 B2 c4 A4 | ^G4 z4 z4 z2 C2 | F4 E4 D2 A2 _B2 F2 | %77
 z4 z2 G2 F2 E2 D4 | E16 | z16 | z16 | z16 | z16 | z2 BA BcdB ^c8 | z2 AG ABcA B8 | %85
 z2 GA _BGcB A8 | A8 E4 A4 | A8 _B2 A2 B4 | A8 F8 | z4 c2 B2 c2 d4 ^c2 | %90
 d2 =c2 d2 _B2 A2 G2 A2 F2- | F2 E2 D2 G4 F2 E4 | ^F2 G4 F2 A2 _B2 A4 | E4 z2 E2 G6 FE | %94
 D4 z2 D2 F6 ED | C4 z2 A2 A8 | F4 D4 G8 | G4 z4 z4 E4 | A2 Bc d2 cB A2 G2 A2 B2 | %99
 c2 A2 A2 A2 G4 F2 _B2- | B2 A2 DEFG A8 | z16 | A6 _B2 F6 G2- | G2 A4 DE F2 G2 A2 c2- | %104
 c2 d2 A6 B4 c2- | c2 FG A2 B2 c4 B4 | A4 G2 A4 ^G2 A4 | z4 z2 E2 F2 E2 E4 | A4 z2 A4 ^G2 A4 | %109
 z8 E4 F2 ^F2 | G2 ^G2 A4 z2 A2 G2 =G2 | ^F2 =F2 E4 z4 A4 | A4 E2 B2 c4 B4 | z8 z4 z2 A2 | %114
 _B2 F2 G2 A2 D4 z2 D2 | E2 A4 G4 F2 E4 | D2 G2 A4 ^G2 A4 G2 | A4 E4 G4 E4 | z2 AG F2 ED A8 | %119
 A12 z2 AG | F2 ED ^C4 D4 E4 | A2 GF E8 z2 ed | c2 BA ^G4 A2 c2 B4 | E12 A4 | ^G4 =G4 ^F4 =F4 | %125
 E8 D2 E2 F2 G2 | A8 E4 G4 | D4 F4 G4 E4 | F2 E2 D2 E2 F2 E2 F2 G2 | A2 GF E2 F2 G2 FE D2 E2 | %130
 F2 ED C2 D2 E2 F2 G2 FE | D2 E2 F2 G2 A2 G2 A2 B2 | c2 B2 c2 d2 e2 dc B2 c2 | %133
 d2 cB A2 B2 c2 BA G2 A2 | B2 AG ^F2 G2 A2 G=F E2 F2 | G2 FE D2 E2 F2 G2 A2 GF | E4 E4 F4 ^F4 | %137
 G4 ^G4 A4 A4 | d4 B4 A8 | G8 A8 | A2 Bc d2 c2 B2 cd e2 d2 | ^c4 z4 z8 | z16 | z4 c6 B2 A4- | %144
 A4 G4 A2 A2 F2 E2 | DEFG A4 z8 | z16 | z2 z A _BFGA D3 ^C D2 z2 | z A_B=B c^c d2- d e2 A- AGAB | %149
 c2 B2 AA^G=G ^F=F E2 G2 A2 | G2 DF E4 ^F4 ^G4 | A4 B4 z2 A2 ^G2 =G2 | ^F2 =F2 E4 DEFG A4 | %153
 G4 E4 A8 | z4 z2 E2 F2 ^F2 G2 ^G2 | ABcd e2 c2 A2 dc B2 ed | ^c2 d4 c2 d2 _B4 A2- | %157
 A2 G4 ^F2 G2 c4 =B2- | B2 A4 ^G2 A2 A2 G2 =G2 | ^F2 =F2 E4 D4 F4 | E8 D6 E2 | F8 E8 | %162
 F4 F2 G2 A6 G2 | F2 E2 F8 E2 D2 | E16 |] %165
V:3
 z16 | z16 | z4 E4 F4 C4 | D4 E4 A,2 B,2 C2 D2 | E4 E8 D4 | G2 F2 E2 D2 C4 A,4 | z4 E4 E4 E4 | %7
 D4 C4 F8 | E4 z2 D2 G8 | D4 ^C4 D8- | D4 ^C4 D4 E4 | F4 C4 D4 E4 | A,2 B,2 C2 A,2 F,2 A,4 ^G,2 | %13
 A,2 B,2 ^C4 D4 B,4 | E8 A,4 E4 | B,8 D8 | E12 D4- | D4 ^C4 D4 F4- | F4 E2 D2 E8 | z4 D4 ^C4 =C4 | %20
 B,4 _B,4 A,2 =B,2 C4 | D4 A,4 E6 F2 | G8 F4 E4 | z4 A,4 _B,4 =B,4 | C4 ^C4 D8 | E4 E4 F4 ^F4 | %26
 G4 ^G4 A2 =GF E2 F2 | G2 DE F2 C2 D2 E2 F2 G2 | A2 E2 F2 C3 D E2 A,2 E2 | G4 C4 D8 | %30
 A4 E4 F2 C3 D E2 | A,2 C2 D4 D2 C4 _B,2 | A,2 G,2 A,2 =B,2 C2 D2 E2 C2 | F2 ED C2 D2 E2 B,C D4- | %34
 D2 C2 D2 E2 F2 E2 F2 G2 | A4 z4 E8 | E4 E4 D4 C4 | F8 E4 z2 G,2 | A,B,CD E2 C2 A,2 DC B,4 | %39
 A,2 F2 EDCB, A,2 D4 E2 | C2 D2 C2 B,2 A,4 z2 A,2 | _B,2 =B,2 C2 ^C2 D4 E2 B,2 | D4 B,4 ^C3 D E4 | %43
 z4 z2 C2 D4 E4 |[K:alto] A4 z2 E2 F2 ^F2 G2 ^G2 | A4 z4 z2 E4 C2 | %46
 B,2 A,2 ^G,2 A,2 DC B,2 A,2 B,2 | C8 z DDE FDFG | A4 E3 F G2 E2 G4 | z DDE FDFG A2 E2 A,4 | %50
 z DDC B,DB,A, G,8 | z8 z CCD E4 | z EDC B,4 z B,B,C D4 | z DCB, A,4 z A,A,B, C4 | %54
[K:bass] z CB,A, G,4 z G,G,A, B,2 ^C2 | D4 z4 D8 | D8 z2 EE E2 D2 | ^C4 E4 D8 | %58
 z2 DD D2 E2 F2 A,A, A,2 B,2 | C2 CC C2 D2 E4 D4 | D8 D2 GG G2 F2 | E2 D2 E4 D4 D4 | D8 z4 D4 | %63
 _B,4 C4 z2 F>E D>EC>D | _B,8 F6[K:alto] A2 | z2 A>B G>AF>G E4 C4 | D2 G>A F>GE>F D6 F2 | %67
 F4 z4 z2 A,2 D4- | D4 z2 D2 G8 | z2 E2 G2 E2 A8 | A4 D4 ^C2 AG FE F2 | E8 E8 | E8 E8 | D8 C8 | %74
 F8 E8 | E8 F8 | C8 D8 | E8 A,8 | A8 ^G8 | =G8 ^F8 | =F8 E8 | E8 F8 | ^F8 G8 | ^G8 A8 | %84
 z8 z2 DC DEFD | E8 C4 D4 | ^C8 z2 A,B, C2 D2 | E2 F2 E4 G8 | C4 F2 E2 D2 C2 D2 E2 | %89
 F2 G2 A2 G2 F4 E4 | D4 F2 D2 C2 =B,2 C2 A,2 | B,2 C4 B,2 ^C2 D4 =C2- | C2 _B,2 A,4 z8 | %93
 z4 A2 GF E4 z2 E2 | G6 FE D4 z2 D2 | F6 ED C2 F2 E4 | D8 D2 EF G2 F2 | E8 E2 FG A2 G2 | %98
 ^F6 G2 =F2 E2 F2 G2 | A8 z8 | z8 z4 z2 E2 | E2 E2 D4 C4 F4 | E4 z4 z8 | z8 z4 z2 E2 | %104
 F6 C2 D4 E4 | A,8 z2 A2 ^G2 =G2 | ^F2 =F2 E4 z2 E2 F2 ^F2 | G2 ^G2 A4 z4 z2 E2 | %108
 ^D2 =D2 ^C2 =C2 B,4 A,2 D2 | B,2 E2 ^C2 D4 C2 D4 | B,4 A,2 E2 F2 C2 D2 E2 | %111
 A,4 x2 A2 ^G2 =G2 ^F2 =F2 | E2 A,4 ^G,2 A,2 A,2 B,2 E2- | E2 D4 C4 B,2 A,4 | D4 z4 z4 z2 D2 | %115
 ^C2 =C2 B,2 _B,2 A,6 A,2 | B,2 E4 D4 C2 B,4 | A,2 ED CB, A,2 B,4 C4 | A,6 B,2 C2 A,B, CD E2 | %119
 A,2 D2 E2 AG F2 ED ^C4 | D4 E4 A,8- | A,8 A,4 B,4 | A,4 E4 E4 z2 ED | C2 B,A, ^G,4 A,2 B,2 C2 D2 | %124
 E2 DC B,2 C2 D2 CB, A,2 B,2 | C2 B,A, G,2 A,2 B,2 C2 D2 E2 | F4 E2 DC B,2 C2 D2 CB, | %127
 A,2 B,2 C2 B,A, G,2 A,2 B,2 C2 | D2 C2 B,2 C2 D4 D4 | ^C4 =C4 B,4 _B,4 | A,8 z8 | z16 | %132
 z4 A2 GF E2 F2 G2 FE | D2 E2 F2 ED C2 D2 E2 DC | B,2 C2 D2 CB, A,2 B,2 C2 B,A, | %135
 G,2 A,2 B,2 C2 D2 CB, A,2 B,2 | C2 D2 E4 D8 | E4 B,4 A,2 B,C D2 C2 | B,2 CD E2 D2 C2 DE F2 E2 | %139
 D8 z4 E4 | F4 ^F4 G4 ^G4 | A4 D4 D4 D2 EF | G2 F2 E2 FG A2 G2 F2 GA | _B2 A2 G4 C2 D2 D4- | %144
 D4 D4 E4 z4 | z4 z EEE D2 C2 F4 | E4 z2 z E FCDE A,3 ^G, | A,4 z4 z2 z E F^FG^G | %148
 A2 =G E2 E DA, _B,=B,C^C D4 | C2 E2 A,D E2 z D^C=C B,_B,A,E- | ED D4 ^C2 D2 =C2 B,4 | %151
 A,2 D2 B,2 E2 C3 D E4 | B,2 D2 A,2 C2 D4 z2 A,2 | _B,2 =B,2 C2 ^C2 DEFD E4 | %154
 G3 F E2 A,4 DC B,A, B,2 | A,3 B, C2 G,2 D4 z2 B,2 | A,8 A,2 z2 z2 A,2 | ^F,2 G,2 A,4 E8 | %158
 E8 E2 F4 E2- | E2 D4 ^C2[K:bass] D4 A,4- | A,4 A,8 G,4 | A,8 A,8 | A,16 | A,16 | A,16 |] %165
V:4
 z16 | z16 | z16 | z16 | z16 | z4 E,4 F,4 ^F,4 | G,4 ^G,4 A,8 | z16 | z16 | z4 A,4 _B,4 F,4 | %10
 G,4 A,4 D,4 z4 | z8 z4 E,4 | F,4 C,4 D,4 E,4 | A,,8 z8 | z8 z4 A,4 | ^G,4 =G,4 ^F,4 =F,4 | %16
 E,8 A,4 A,4 | A,4 A,4 G,4 F,4 | _B,8 A,4 A,4 | E,4 G,4 A,8 | z16 | D,8 ^C,4 =C,4 | %22
 B,,4 _B,,4 A,,4 A,4 | D,4 D,4 G,4 E,4 | A,8 z8 | z16 | z16 | z16 | A,8 A,4 A,4 | G,4 F,4 _B,8 | %30
 A,16 | z2 A,2 _B,2 F,3 G, A,2 D,4- | D,4 D,4 A,2 B,2 C2 A,2 | D2 CB, A,2 F,2 C2 G,A, _B,2 F,2 | %34
 G,2 A,2 _B,2 C2 D8 | z16 | z16 | z8 z4 E,4 | F,4 C,4 D,4 E,4 | A,,4 z2 E,2 F,2 ^F,2 G,2 ^G,2 | %40
 A,8 z8 | z8 z4 z2 E,2 | F,2 ^F,2 G,2 ^G,2 A,4 z4 | z4 z2 A,2 _B,2 =B,2 C2 ^C2 |[K:alto] D4 z4 z8 | %45
 z8 z2 C2 ^G,2 A,2 | E,2 z2 z4 z2 =G,2 ^F,2 G,2 | C,2 F,G, A,G,F,E, D,4 z4 | z A,A,B, CA,CD E8 | %49
 z8 z A,A,G, F,A,F,E, | D,4 z G,G,F, E,G,E,D, C,4 | z F,F,G, A,4 A,4 z A,G,F, | %52
 E,4 z E,E,^F, G,4 z G,=F,E, | D,4 z D,D,E, F,4 z F,E,D, |[K:bass] C,4 z C,C,D, E,3 F, G,2 A,2 | %55
 D,2 DD D2 C2 B,6 A,2 | G,2 G,G, G,2 F,2 E,8 | A,4 ^C4 D4 z4 | z8 z2 F,F, F,2 G,2 | %59
 A,2 A,A, A,2 B,2 C4 G,4 | z2 _B,B, B,2 A,2 G,8 | A,8 ^F,2 G,4 F,2 | %62
 G,2 A,2 _B,2 C2 D2 D>C B,>CA,>B, | G,4 z4 z8 | z2 G,>A, F,>G,E,>F, D,6[K:alto] D2 | %65
 A,8 A,2 E,2 A,2 C2 | G,8 G,2 D,4 D,2 | F,2 F,>G, E,>F,D,>E, ^C,4 z2 D,2 | G,8 z2 G,2 B,2 G,2 | %69
 C8 z2 A,2 G,2 A,2 | D,2 DC _B,A, B,2 A,8 | A,8 E,8 | E,8 A,2 G,2 A,4 | D,2 G,2 ^F,2 G,2 C,4 z4 | %74
 z2 D,2 F,2 G,2 A,8 | z8 z2 A,2 _B,2 F,2- | F,2 G,2 A,4 D,2 F,2 G,2 D,2 | %77
 z2 G,2 A,2 E,2 F,G, A,2 D,4 | A,,2 B,,2 C,2 D,2 E,4 z4 | z2 D2 B,2 C2 D2 B,2 D2 CB, | %80
 A,2 D2 A,2 B,2 C2 A,2 C2 B,A, | G,2 C2 G,2 A,2 D,4 z4 | z2 B,,C, D,B,,C,D, E,4 z4 | %83
 z8 z2 A,G, A,B,^CA, | D8 G,8 | C8 F,4 D,4 | A,8 A,8 | A,8 G,8 | F,8 _B,8 | A,8 A,8 | _B,8 F,8 | %91
 G,8 A,8 | D,8 D8 | ^C8 =C8 | B,8 _B,8 | A,8 A,8 | _B,8 =B,8 | C8 ^C8 | D16 | z16 | %100
 z8 z2 A,2 A,2 A,2 | G,4 F,2 _B,4 A,2 D,E,F,G, | A,4 z4 z8 | z8 z4 A,4- | A,2 _B,2 F,6 G,4 A,2- | %105
 A,2 D,E, F,2 G,2 A,4 z4 | z8 z4 z2 D,2 | G,2 E,2 A,4 D,2 A,2 ^G,2 =G,2 | %108
 ^F,2 =F,2 E,4 z2 E,2 F,2 ^F,2 | G,2 ^G,2 A,6 A,,2 D,2 B,,2 | E,4 A,,4 z2 A,,2 B,,2 E,2- | %111
 E,2 D,4 C,2 B,,2 C,2 A,,4- | A,,4 z4 z2 A,2 ^G,2 =G,2 | ^F,2 =F,2 E,2 A,2 D,2 G,4 ^F,2 | %114
 G,2 D,2 E,2 A,4 G,4 F,2 | E,2 F,2 D,8 z4 | z2 E,2 F,4 E,8 | A,4 z4 z2 G,F, E,2 D,C, | %118
 D,8 z4 z2 A,G, | F,2 E,D, A,4 z8 | z4 z2 A,G, F,2 E,D, ^C,4 | D,4 A,4 A,4 E,4 | %122
 z4 z2 ED C2 B,A, ^G,4 | A,4 E,4 z8 | z16 | z16 | A,8 ^G,4 =G,4 | ^F,4 =F,4 E,8 | z16 | z16 | z16 | %131
 z16 | z16 | z8 A,2 G,F, E,2 F,2 | G,2 F,E, D,2 E,2 F,2 E,D, C,2 D,2 | %135
 E,2 F,2 G,2 F,E, D,2 E,2 F,2 G,2 | A,4 z4 z8 | z4 E,4 F,4 ^F,4 | G,4 ^G,4 A,6 A,2 | %139
 _B,4 =B,4 C4 ^C4 | D4 B,4 E4 E,4 | A,2 G,2 F,2 E,2 D,2 E,F, G,2 F,2 | %142
 E,2 F,G, A,2 G,2 F,2 G,A, _B,2 A,2 | G,2 A,=B, C2 B,2 A,2 B,C D2 C2 | _B,2 A,2 B,4 A,4 z4 | %145
 z4 A,4 F,2 E,2 D,E,F,G, | A,8 z2 z E, F,C,D,E, | A,,4 z2 z A, _B,F,G,A, D,3 E, | %148
 F,^F,G,^G, A,2 D,2 =G,E, A,2 D,E,=F,G, | A,A,^G,=G, ^F,=F, E,2 A,4 z2 A,2 | %150
 E,G,F,D, A,4 D,4 z2 E,2 | F,2 ^F,2 G,2 ^G,2 A,4 z4 | z4 A,4 _B,4 F,4 | G,4 A,4 D,4 A,2 A,,2 | %154
 _B,,2 =B,,2 C,2 ^C,2 D,4 z2 E,2 | F,4 C,4 D,4 E,4 | A,,8 D,8 | D,8 E,8 | E,8 A,8 | %159
 A,8[K:bass] D,4 D,4 | ^C,4 =C,4 B,,4 _B,,4 | A,,8 A,,8 | D,4 D,8 ^C,4 | D,8 A,,8 | A,,16 |] %165

